X: 1617
T: O'Gallagher's Hornpipe
R:hornpipe
N:"Collected by  O'Gallagher"
B:O'Neill's 1617
Z:Transcribed by Michael Hogan
M:C|
L:1/8
K:G
(Bc) | d^c.ed =cBAG | BAGF GABc | dgfg edcB | AGFE D2 (Bc) |
d^ced =cBAG | BAGF GABc | dgfg ecAF | G2 G2 G2 :|
(Bc) | dgfg edBd | e^def g2 (fg) | edcB cBAG | AGFE D2 (EF) |
GFGB A^GAc | B^ABd efge | BdBG AcAF | G2 G2 G2 :||


